Obsidian/places/16/folder-network.svg

<svg viewBox="0 0 16 16" xmlns="http://www.w3.org/2000/svg"><path d="m8 2c-3.324 0-6 2.676-6 6s2.676 6 6 6 6-2.676 6-6-2.676-6-6-6zm0 1c2.9916 0 5 2.0084 5 5s-2.0084 5-5 5-5-2.0084-5-5 2.0084-5 5-5zm1.5 2a1 1 0 0 0 -1 1 1 1 0 0 0 1 1 1 1 0 0 0 1-1 1 1 0 0 0 -1-1zm-2 1.5a.5.5 0 0 0 -.5.5.5.5 0 0 0 .5.5.5.5 0 0 0 .5-.5.5.5 0 0 0 -.5-.5zm-2 .5a1 1 0 0 0 -1 1 1 1 0 0 0 1 1 1 1 0 0 0 1-1 1 1 0 0 0 -1-1zm2 1.5a.5.5 0 0 0 -.5.5.5.5 0 0 0 .5.5.5.5 0 0 0 .5-.5.5.5 0 0 0 -.5-.5zm2 .5a1 1 0 0 0 -1 1 1 1 0 0 0 1 1 1 1 0 0 0 1-1 1 1 0 0 0 -1-1z" fill="#f2f2f2"/></svg>

<svg xmlns="http://www.w3.org/2000/svg" viewBox="0 0 16 16">
  <defs id="defs3051">
    <style type="text/css" id="current-color-scheme">
      .ColorScheme-Text {
        color:#f2f2f2;
      }
      </style>
  </defs>
    <path 
        style="fill:currentColor;fill-opacity:1;stroke:none" 
        d="M 8 2 C 4.676 2 2 4.676 2 8 C 2 11.324 4.676 14 8 14 C 11.324 14 14 11.324 14 8 C 14 4.676 11.324 2 8 2 z M 8 3 C 10.9916 3 13 5.0084 13 8 C 13 10.9916 10.9916 13 8 13 C 5.0084 13 3 10.9916 3 8 C 3 5.0084 5.0084 3 8 3 z M 9.5 5 A 1 1 0 0 0 8.5 6 A 1 1 0 0 0 9.5 7 A 1 1 0 0 0 10.5 6 A 1 1 0 0 0 9.5 5 z M 7.5 6.5 A 0.5 0.5 0 0 0 7 7 A 0.5 0.5 0 0 0 7.5 7.5 A 0.5 0.5 0 0 0 8 7 A 0.5 0.5 0 0 0 7.5 6.5 z M 5.5 7 A 1 1 0 0 0 4.5 8 A 1 1 0 0 0 5.5 9 A 1 1 0 0 0 6.5 8 A 1 1 0 0 0 5.5 7 z M 7.5 8.5 A 0.5 0.5 0 0 0 7 9 A 0.5 0.5 0 0 0 7.5 9.5 A 0.5 0.5 0 0 0 8 9 A 0.5 0.5 0 0 0 7.5 8.5 z M 9.5 9 A 1 1 0 0 0 8.5 10 A 1 1 0 0 0 9.5 11 A 1 1 0 0 0 10.5 10 A 1 1 0 0 0 9.5 9 z " 
        id="rect4175" 
        class="ColorScheme-Text"/>
</svg>
